tools/download-figma-icons/icons/solid/garage.svg

<svg width="24" height="25" viewBox="0 0 24 25" fill="none" xmlns="http://www.w3.org/2000/svg">
<path d="M15.7425 18.7441H8.25C7.8375 18.7441 7.5 19.0816 7.5 19.4941C7.5 19.9066 7.8375 20.2441 8.25 20.2441H15.7425C16.155 20.2441 16.4925 19.9066 16.4925 19.4941C16.4925 19.0816 16.155 18.7441 15.7425 18.7441Z" fill="black"/>
<path d="M15.7425 15.7441H8.25C7.8375 15.7441 7.5 16.0816 7.5 16.4941C7.5 16.9066 7.8375 17.2441 8.25 17.2441H15.7425C16.155 17.2441 16.4925 16.9066 16.4925 16.4941C16.4925 16.0816 16.155 15.7441 15.7425 15.7441Z" fill="black"/>
<path d="M15.7425 12.7441H8.25C7.8375 12.7441 7.5 13.0816 7.5 13.4941C7.5 13.9066 7.8375 14.2441 8.25 14.2441H15.7425C16.155 14.2441 16.4925 13.9066 16.4925 13.4941C16.4925 13.0816 16.155 12.7441 15.7425 12.7441Z" fill="black"/>
<path d="M23.235 22.4944H22.5L22.485 8.64188L22.8375 8.87437C22.965 8.95687 23.1075 8.99437 23.25 8.99437C23.49 8.99437 23.73 8.88188 23.8725 8.66438C24.105 8.31938 24.0075 7.85437 23.6625 7.62187L12.42 0.129375C12.1725 -0.043125 11.8425 -0.043125 11.5875 0.129375L0.345 7.62187C0 7.85437 -0.09 8.31938 0.1425 8.66438C0.3675 9.00937 0.8325 9.09937 1.1775 8.87437L1.515 8.64937L1.53 22.4944H0.75C0.3375 22.4944 0 22.8244 0 23.2369C0 23.6494 0.3375 23.9869 0.75 23.9869H2.22C2.22 23.9869 2.2575 24.0019 2.28 24.0019L11.445 23.9869H23.235C23.655 23.9869 23.985 23.6569 23.985 23.2369C23.985 22.8169 23.655 22.4944 23.235 22.4944ZM17.9925 22.4794L11.4525 22.4944H6V11.3569C6 10.8919 6.3 10.4944 6.6675 10.4944H17.3175C17.685 10.4944 17.9925 10.8919 17.9925 11.3569V22.4794Z" fill="black"/>
</svg>

<svg width="24" height="25" viewBox="0 0 24 25" fill="none" xmlns="http://www.w3.org/2000/svg"><path d="M15.742 18.744H8.25a.752.752 0 0 0-.75.75c0 .413.338.75.75.75h7.492c.413 0 .75-.337.75-.75a.752.752 0 0 0-.75-.75Zm0-3H8.25a.752.752 0 0 0-.75.75c0 .413.338.75.75.75h7.492c.413 0 .75-.337.75-.75a.752.752 0 0 0-.75-.75Zm0-3H8.25a.752.752 0 0 0-.75.75c0 .413.338.75.75.75h7.492c.413 0 .75-.337.75-.75a.752.752 0 0 0-.75-.75Z" fill="currentColor"/><path d="M23.235 22.494H22.5l-.015-13.852.352.232a.75.75 0 0 0 .413.12.74.74 0 0 0 .622-.33.751.751 0 0 0-.21-1.042L12.42.129a.734.734 0 0 0-.832 0L.345 7.622a.75.75 0 0 0-.202 1.042.747.747 0 0 0 1.034.21l.338-.225.015 13.845H.75a.746.746 0 1 0 0 1.493h1.47s.037.015.06.015l9.165-.015h11.79c.42 0 .75-.33.75-.75s-.33-.743-.75-.743Zm-5.242-.015-6.54.015H6V11.357c0-.465.3-.863.668-.863h10.65c.367 0 .674.398.674.863v11.122Z" fill="currentColor"/></svg>
